; generated by PrusaSlicer 2.5.0+win64 on 2023-08-01 at 12:26:09 UTC


;
;
; 

; external perimeters extrusion width = 0.45mm
; perimeters extrusion width = 0.45mm
; infill extrusion width = 0.45mm
; solid infill extrusion width = 0.45mm
; top infill extrusion width = 0.40mm
; first layer extrusion width = 0.42mm

M73 P0 R114
M73 Q0 S115
M201 X1000 Y1000 Z200 E5000 ; sets maximum accelerations, mm/sec^2
M203 X200 Y200 Z12 E120 ; sets maximum feedrates, mm / sec
M204 P1250 R1250 T1250 ; sets acceleration (P, T) and retract acceleration (R), mm/sec^2
M205 X8.00 Y8.00 Z0.40 E4.50 ; sets the jerk limits, mm/sec
M205 S0 T0 ; sets the minimum extruding and travel feed rate, mm/sec
M107
;TYPE:Custom
M862.3 P "MK3S" ; printer model check
M862.1 P0.4 ; nozzle diameter check
M115 U3.11.0 ; tell printer latest fw version
G90 ; use absolute coordinates
M83 ; extruder relative mode
M104 S215 ; set extruder temp
M140 S60 ; set bed temp
M190 S60 ; wait for bed temp
M109 S215 ; wait for extruder temp
G28 W ; home all without mesh bed level
G80 ; mesh bed leveling

G1 Z0.2 F720
G1 Y-3 F1000 ; go outside print area
G92 E0
G1 X60 E9 F1000 ; intro line
G1 X100 E12.5 F1000 ; intro line

G92 E0
M221 S95

; Don't change E values below. Excessive value can damage the printer.
M907 E430 ; set extruder motor current
G21 ; set units to millimeters
G90 ; use absolute coordinates
M83 ; use relative distances for extrusion
M900 K0.05 ; Filament gcode LA 1.5
M900 K30 ; Filament gcode LA 1.0
M107
;LAYER_CHANGE
;Z:0.2
;HEIGHT:0.2
;BEFORE_LAYER_CHANGE
G92 E0.0
;0.2


G1 E-.8 F2100
G1 Z.4 F720
;AFTER_LAYER_CHANGE
;0.2
G1 X74.06 Y96.717 F10800
G1 Z.2 F720
G1 E.8 F2100
M204 S800
;TYPE:Skirt/Brim
;WIDTH:0.42
G1 F1200
G1 X75 Y96.523 E.03008
G1 X175 Y96.523 E3.13543
G1 X176.307 Y96.915 E.04278
G1 X177.183 Y97.96 E.04278
G1 X177.377 Y98.9 E.03008
G1 X177.377 Y106.9 E.25083
G1 X176.985 Y108.207 E.04278
G1 X175.279 Y109.261 E.06287
G1 X139.779 Y113.461 E1.12084
G1 X110.221 Y113.461 E.92679
G1 X74.721 Y109.261 E1.12084
G1 X73.469 Y108.718 E.04278
M73 Q0 S114
G1 X72.623 Y106.9 E.06287
G1 X72.623 Y98.9 E.25083
G1 X73.015 Y97.593 E.04278
G1 X74.014 Y96.755 E.0409
M204 S1000
; printing object drzalo_leva_srednja.STL id:0 copy 0
;WIPE_START
G1 F8640
G1 X75 Y96.523 E-.23384
G1 X77.279 Y96.523 E-.52616
;WIPE_END
G1 E-.04 F2100
G1 Z.6 F720
G1 X111.284 Y106.639 F10800
G1 Z.2 F720
G1 E.8 F2100
M204 S800
;TYPE:Perimeter
;WIDTH:0.419999
G1 F1200
G1 X111.207 Y106.388 E.00823
G1 X111.002 Y106.187 E.00901
G1 X110.721 Y106.113 E.00909
G1 X75.787 Y106.113 E1.09534
G1 X75.787 Y99.687 E.20148
G1 X107.911 Y99.687 E1.00723
G1 X107.558 Y99.926 E.01338
G1 X107.239 Y100.232 E.01386
G1 X106.979 Y100.589 E.01386
G1 X106.784 Y100.986 E.01386
G1 X106.661 Y101.411 E.01386
G1 X106.614 Y101.851 E.01386
G1 X106.644 Y102.292 E.01386
G1 X106.75 Y102.721 E.01386
G1 X106.929 Y103.125 E.01386
G1 X107.176 Y103.492 E.01386
G1 X107.482 Y103.811 E.01386
G1 X107.839 Y104.071 E.01386
G1 X108.236 Y104.266 E.01386
G1 X108.661 Y104.389 E.01386
G1 X109.101 Y104.436 E.01386
G1 X109.542 Y104.406 E.01386
G1 X109.971 Y104.3 E.01386
G1 X110.289 Y104.161 E.01087
G1 X110.742 Y103.874 E.01682
G1 X111.061 Y103.568 E.01386
G1 X111.321 Y103.211 E.01386
G1 X111.516 Y102.814 E.01386
G1 X111.639 Y102.389 E.01386
G1 X111.686 Y101.949 E.01386
G1 X111.656 Y101.508 E.01386
G1 X111.55 Y101.079 E.01386
G1 X111.371 Y100.675 E.01386
G1 X111.124 Y100.308 E.01386
G1 X110.818 Y99.989 E.01386
G1 X110.389 Y99.687 E.01645
G1 X140.478 Y99.687 E.94343
G1 X140.125 Y99.926 E.01338
G1 X139.806 Y100.232 E.01386
G1 X139.545 Y100.589 E.01386
G1 X139.351 Y100.986 E.01386
G1 X139.228 Y101.411 E.01386
G1 X139.181 Y101.851 E.01386
G1 X139.211 Y102.292 E.01386
G1 X139.317 Y102.721 E.01386
G1 X139.496 Y103.125 E.01386
G1 X139.743 Y103.492 E.01386
G1 X140.049 Y103.811 E.01386
G1 X140.406 Y104.071 E.01386
G1 X140.803 Y104.266 E.01386
G1 X141.228 Y104.389 E.01386
G1 X141.667 Y104.436 E.01386
G1 X142.109 Y104.406 E.01386
G1 X142.538 Y104.3 E.01386
G1 X142.942 Y104.121 E.01386
G1 X143.309 Y103.874 E.01386
G1 X143.628 Y103.568 E.01386
G1 X143.888 Y103.211 E.01386
G1 X144.083 Y102.814 E.01386
G1 X144.205 Y102.389 E.01386
G1 X144.253 Y101.949 E.01386
G1 X144.223 Y101.508 E.01386
G1 X144.116 Y101.079 E.01386
G1 X143.937 Y100.675 E.01386
G1 X143.691 Y100.308 E.01386
G1 X143.385 Y99.989 E.01386
G1 X142.955 Y99.687 E.01645
G1 X174.213 Y99.687 E.98005
G1 X174.213 Y106.113 E.20148
G1 X139.763 Y106.113 E1.08017
G1 X139.128 Y106.133 E.0199
G1 X138.925 Y106.237 E.00716
G1 X138.764 Y106.444 E.00821
G1 X138.713 Y106.679 E.00753
G1 X138.713 Y110.313 E.11395
G1 X111.287 Y110.313 E.85992
G1 X111.287 Y106.699 E.11331
M204 S1000
G1 X110.91 Y106.679 F10800
M204 S800
;TYPE:External perimeter
G1 F1200
G1 X110.872 Y106.565 E.00375
G1 X110.733 Y106.49 E.00496
G1 X75.41 Y106.49 E1.10752
G1 X75.41 Y99.31 E.22512
G1 X107.826 Y99.31 E1.01639
;WIDTH:0.421736
G1 X108.354 Y99.311 E.01661
;WIDTH:0.446804
G1 X109.185 Y99.323 E.02793
G1 X109.946 Y99.31 E.02557
;WIDTH:0.419999
G1 X140.393 Y99.31 E.95464
;WIDTH:0.421736
G1 X140.92 Y99.311 E.01661
;WIDTH:0.446804
G1 X141.752 Y99.323 E.02793
G1 X142.513 Y99.31 E.02557
;WIDTH:0.419999
G1 X174.59 Y99.31 E1.00575
G1 X174.59 Y106.49 E.22512
G1 X139.279 Y106.49 E1.10716
G1 X139.161 Y106.531 E.00392
G1 X139.09 Y106.679 E.00512
G1 X139.09 Y110.69 E.12578
M73 P0 R113
G1 X110.91 Y110.69 E.88356
G1 X110.91 Y106.739 E.1239
M204 S1000
G1 X110.952 Y106.566 F10800
;WIPE_START
G1 F8640
G1 X110.872 Y106.565 E-.04099
G1 X110.733 Y106.49 E-.03653
G1 X107.777 Y106.49 E-.68249
;WIPE_END
G1 E-.04 F2100
G1 Z.6 F720
G1 X107.297 Y100.793 F10800
G1 Z.2 F720
G1 E.8 F2100
M204 S800
G1 F1200
G1 X107.506 Y100.499 E.01132
G1 X107.774 Y100.235 E.01181
G1 X108.084 Y100.021 E.01181
;WIDTH:0.460041
G1 X108.754 Y99.756 E.02497
G1 X109.168 Y99.727 E.0144
;WIDTH:0.454093
G1 X109.546 Y99.759 E.01297
G1 X110.216 Y100.021 E.0246
;WIDTH:0.419999
G1 X110.551 Y100.256 E.01283
G1 X110.815 Y100.524 E.01181
G1 X111.029 Y100.834 E.01181
G1 X111.185 Y101.177 E.01181
G1 X111.28 Y101.541 E.01181
G1 X111.31 Y101.916 E.01181
G1 X111.274 Y102.291 E.01181
G1 X111.174 Y102.654 E.01181
G1 X111.013 Y102.994 E.01181
G1 X110.794 Y103.301 E.01181
G1 X110.526 Y103.565 E.01181
G1 X110.129 Y103.819 E.01476
G1 X109.873 Y103.935 E.00882
G1 X109.509 Y104.03 E.01181
G1 X109.134 Y104.06 E.01181
G1 X108.759 Y104.024 E.01181
G1 X108.396 Y103.924 E.01181
G1 X108.056 Y103.763 E.01181
G1 X107.749 Y103.544 E.01181
G1 X107.485 Y103.276 E.01181
G1 X107.271 Y102.966 E.01181
G1 X107.115 Y102.623 E.01181
G1 X107.02 Y102.259 E.01181
G1 X106.99 Y101.884 E.01181
G1 X107.026 Y101.509 E.01181
G1 X107.126 Y101.146 E.01181
G1 X107.268 Y100.846 E.01042
M204 S1000
G1 X107.119 Y100.479 F10800
;WIPE_START
G1 F8640
G1 X107.506 Y100.499 E-.09704
G1 X107.774 Y100.235 E-.08694
G1 X108.084 Y100.021 E-.08694
G1 X108.754 Y99.756 E-.16622
G1 X109.168 Y99.727 E-.09586
G1 X109.546 Y99.759 E-.08763
G1 X110.108 Y99.979 E-.13937
;WIPE_END
G1 E-.04 F2100
G1 Z.6 F720
G1 X139.676 Y102.604 F10800
G1 Z.2 F720
G1 E.8 F2100
M204 S800
G1 F1200
G1 X139.587 Y102.259 E.01118
G1 X139.557 Y101.884 E.01181
G1 X139.592 Y101.509 E.01181
G1 X139.693 Y101.146 E.01181
G1 X139.854 Y100.806 E.01181
G1 X140.073 Y100.499 E.01181
G1 X140.341 Y100.235 E.01181
G1 X140.651 Y100.021 E.01181
;WIDTH:0.460041
G1 X141.32 Y99.756 E.02497
G1 X141.734 Y99.727 E.0144
;WIDTH:0.454093
G1 X142.112 Y99.759 E.01298
G1 X142.783 Y100.021 E.0246
;WIDTH:0.419999
G1 X143.118 Y100.256 E.01283
G1 X143.382 Y100.524 E.01181
G1 X143.596 Y100.834 E.01181
G1 X143.752 Y101.177 E.01181
G1 X143.847 Y101.541 E.01181
G1 X143.877 Y101.884 E.01078
G1 X143.841 Y102.291 E.01283
G1 X143.741 Y102.654 E.01181
G1 X143.579 Y102.994 E.01181
G1 X143.361 Y103.301 E.01181
G1 X143.093 Y103.565 E.01181
G1 X142.783 Y103.779 E.01181
G1 X142.44 Y103.935 E.01181
G1 X142.076 Y104.03 E.01181
G1 X141.7 Y104.06 E.01181
G1 X141.325 Y104.024 E.01181
G1 X140.963 Y103.924 E.01181
G1 X140.623 Y103.763 E.01181
G1 X140.316 Y103.544 E.01181
G1 X140.051 Y103.276 E.01181
G1 X139.838 Y102.966 E.01181
G1 X139.698 Y102.66 E.01055
M204 S1000
G1 X139.326 Y102.539 F10800
;WIPE_START
G1 F8640
G1 X139.587 Y102.259 E-.09609
G1 X139.557 Y101.884 E-.08695
G1 X139.592 Y101.509 E-.08695
G1 X139.693 Y101.146 E-.08694
G1 X139.854 Y100.806 E-.08695
G1 X140.073 Y100.499 E-.08694
G1 X140.341 Y100.235 E-.08695
G1 X140.651 Y100.021 E-.08695
G1 X140.874 Y99.933 E-.05529
;WIPE_END
G1 E-.04 F2100
G1 Z.6 F720
G1 X174.1 Y100.566 F10800
G1 Z.2 F720
G1 E.8 F2100
M204 S800
;TYPE:Solid infill
;WIDTH:0.421764
G1 F1200
G1 X173.503 Y99.97 E.02657
G1 X172.968 Y99.97 E.01688
G1 X173.93 Y100.932 E.04287
G1 X173.93 Y101.468 E.01688
G1 X172.432 Y99.97 E.06674
G1 X171.896 Y99.97 E.01688
G1 X173.93 Y102.004 E.09061
G1 X173.93 Y102.54 E.01688
G1 X171.36 Y99.97 E.11448
G1 X170.825 Y99.97 E.01688
G1 X173.93 Y103.075 E.13835
G1 X173.93 Y103.611 E.01688
G1 X170.289 Y99.97 E.16221
G1 X169.753 Y99.97 E.01688
G1 X173.93 Y104.147 E.18608
G1 X173.93 Y104.683 E.01688
G1 X169.217 Y99.97 E.20995
G1 X168.682 Y99.97 E.01688
G1 X173.93 Y105.218 E.23382
G1 X173.93 Y105.754 E.01688
G1 X168.146 Y99.97 E.25769
G1 X167.61 Y99.97 E.01688
G1 X173.47 Y105.83 E.26107
G1 X172.935 Y105.83 E.01688
G1 X167.074 Y99.97 E.26107
G1 X166.539 Y99.97 E.01688
G1 X172.399 Y105.83 E.26108
G1 X171.863 Y105.83 E.01688
G1 X166.003 Y99.97 E.26108
G1 X165.467 Y99.97 E.01688
G1 X171.328 Y105.83 E.26108
G1 X170.792 Y105.83 E.01688
G1 X164.931 Y99.97 E.26108
G1 X164.395 Y99.97 E.01688
G1 X170.256 Y105.831 E.26109
G1 X169.72 Y105.831 E.01688
G1 X163.86 Y99.97 E.26109
G1 X163.324 Y99.97 E.01688
G1 X169.185 Y105.831 E.26109
G1 X168.649 Y105.831 E.01688
G1 X162.788 Y99.97 E.26109
G1 X162.252 Y99.97 E.01688
G1 X168.113 Y105.831 E.2611
G1 X167.578 Y105.831 E.01688
G1 X161.717 Y99.97 E.2611
G1 X161.181 Y99.97 E.01688
G1 X167.042 Y105.831 E.2611
G1 X166.506 Y105.831 E.01688
G1 X160.645 Y99.97 E.2611
G1 X160.109 Y99.97 E.01688
G1 X165.97 Y105.831 E.26111
G1 X165.435 Y105.831 E.01688
G1 X159.574 Y99.97 E.26111
G1 X159.038 Y99.97 E.01688
G1 X164.899 Y105.831 E.26111
G1 X164.363 Y105.831 E.01688
G1 X158.502 Y99.97 E.26111
G1 X157.966 Y99.97 E.01688
G1 X163.828 Y105.831 E.26112
G1 X163.292 Y105.831 E.01688
G1 X157.43 Y99.97 E.26112
G1 X156.895 Y99.97 E.01688
G1 X162.756 Y105.831 E.26112
G1 X162.22 Y105.831 E.01688
G1 X156.359 Y99.97 E.26112
G1 X155.823 Y99.97 E.01688
G1 X161.685 Y105.831 E.26113
G1 X161.149 Y105.831 E.01688
G1 X155.287 Y99.97 E.26113
G1 X154.752 Y99.97 E.01688
G1 X160.613 Y105.832 E.26113
G1 X160.078 Y105.832 E.01688
G1 X154.216 Y99.97 E.26113
G1 X153.68 Y99.97 E.01688
G1 X159.542 Y105.832 E.26114
G1 X159.006 Y105.832 E.01688
G1 X153.144 Y99.97 E.26114
G1 X152.609 Y99.97 E.01688
G1 X158.47 Y105.832 E.26114
G1 X157.935 Y105.832 E.01688
G1 X152.073 Y99.97 E.26114
G1 X151.537 Y99.97 E.01688
G1 X157.399 Y105.832 E.26115
G1 X156.863 Y105.832 E.01688
G1 X151.001 Y99.97 E.26115
G1 X150.466 Y99.97 E.01688
G1 X156.328 Y105.832 E.26115
G1 X155.792 Y105.832 E.01688
G1 X149.93 Y99.97 E.26115
G1 X149.394 Y99.97 E.01688
G1 X155.256 Y105.832 E.26115
G1 X154.72 Y105.832 E.01688
G1 X148.858 Y99.97 E.26116
G1 X148.322 Y99.97 E.01688
G1 X154.185 Y105.832 E.26116
G1 X153.649 Y105.832 E.01688
G1 X147.787 Y99.97 E.26116
G1 X147.251 Y99.97 E.01688
G1 X153.113 Y105.832 E.26116
G1 X152.578 Y105.832 E.01688
G1 X146.715 Y99.97 E.26117
G1 X146.179 Y99.97 E.01688
G1 X152.042 Y105.832 E.26117
G1 X151.506 Y105.832 E.01688
G1 X145.644 Y99.97 E.26117
G1 X145.108 Y99.97 E.01688
G1 X150.97 Y105.832 E.26117
G1 X150.435 Y105.833 E.01688
G1 X144.572 Y99.97 E.26118
G1 X144.036 Y99.97 E.01688
M73 Q1 S114
G1 X149.899 Y105.833 E.26118
G1 X149.363 Y105.833 E.01688
M73 P1 R113
G1 X144.288 Y100.757 E.2261
G1 X144.342 Y100.873 E.00403
G1 X144.48 Y101.344 E.01544
G1 X144.498 Y101.503 E.00506
G1 X148.828 Y105.833 E.19287
G1 X148.292 Y105.833 E.01688
G1 X144.52 Y102.061 E.16801
G1 X144.504 Y102.324 E.00828
G1 X144.45 Y102.526 E.00661
G1 X147.756 Y105.833 E.14731
G1 X147.221 Y105.833 E.01688
G1 X144.333 Y102.945 E.12863
G1 X144.155 Y103.304 E.01259
G1 X146.685 Y105.833 E.11268
G1 X146.149 Y105.833 E.01688
G1 X143.937 Y103.621 E.09854
G1 X143.833 Y103.763 E.00555
G1 X143.688 Y103.907 E.00645
G1 X145.613 Y105.833 E.08578
G1 X145.078 Y105.833 E.01688
G1 X143.396 Y104.151 E.07493
G1 X143.184 Y104.307 E.00829
G1 X143.069 Y104.361 E.00398
G1 X144.542 Y105.833 E.0656
G1 X144.006 Y105.833 E.01688
G1 X142.704 Y104.531 E.05801
G1 X142.619 Y104.571 E.00297
G1 X142.293 Y104.656 E.0106
G1 X143.471 Y105.833 E.05246
G1 X142.935 Y105.833 E.01688
G1 X141.814 Y104.713 E.04993
G1 X141.717 Y104.721 E.00307
G1 X141.24 Y104.674 E.01511
G1 X142.569 Y106.003 E.05921
M204 S1000
;WIPE_START
G1 F8640
G1 X141.24 Y104.674 E-.43402
G1 X141.717 Y104.721 E-.11078
G1 X141.814 Y104.713 E-.02247
G1 X142.404 Y105.303 E-.19272
;WIPE_END
G1 E-.04 F2100
G1 Z.6 F720
G1 X139.045 Y99.8 F10800
G1 Z.2 F720
G1 E.8 F2100
M204 S800
G1 F1200
G1 X139.463 Y100.218 E.01862
G1 X139.249 Y100.54 E.01217
G1 X138.679 Y99.97 E.0254
G1 X138.143 Y99.97 E.01688
G1 X139.084 Y100.911 E.04193
G1 X138.959 Y101.322 E.01353
G1 X137.607 Y99.97 E.06023
G1 X137.071 Y99.97 E.01688
G1 X138.912 Y101.811 E.082
G1 X138.898 Y101.967 E.00494
G1 X138.945 Y102.379 E.01306
G1 X136.536 Y99.97 E.10732
G1 X136 Y99.97 E.01688
G1 X141.863 Y105.833 E.26122
G1 X141.328 Y105.833 E.01688
G1 X135.464 Y99.97 E.26122
G1 X134.928 Y99.97 E.01688
G1 X140.792 Y105.834 E.26122
G1 X140.256 Y105.834 E.01688
G1 X134.393 Y99.97 E.26122
G1 X133.857 Y99.97 E.01688
G1 X139.721 Y105.834 E.26123
G1 X139.186 Y105.835 E.01682
G1 X133.321 Y99.97 E.2613
G1 X132.785 Y99.97 E.01688
G1 X138.803 Y105.987 E.26807
G1 X138.7 Y106.057 E.00393
G1 X138.543 Y106.264 E.00815
G1 X132.249 Y99.97 E.28038
G1 X131.714 Y99.97 E.01688
M73 Q1 S113
G1 X138.439 Y106.695 E.29961
G1 X138.438 Y107.23 E.01683
G1 X131.178 Y99.97 E.32341
G1 X130.642 Y99.97 E.01688
G1 X138.436 Y107.764 E.34722
G1 X138.435 Y108.298 E.01683
G1 X130.106 Y99.97 E.37103
G1 X129.571 Y99.97 E.01688
G1 X138.433 Y108.833 E.39483
G1 X138.432 Y109.367 E.01683
G1 X129.035 Y99.97 E.41864
G1 X128.499 Y99.97 E.01688
G1 X138.431 Y109.901 E.44244
G1 X138.43 Y110.03 E.00405
G1 X138.024 Y110.03 E.01281
G1 X127.963 Y99.97 E.44818
G1 X127.428 Y99.97 E.01688
G1 X137.488 Y110.03 E.44818
G1 X136.952 Y110.03 E.01688
G1 X126.892 Y99.97 E.44818
G1 X126.356 Y99.97 E.01688
G1 X136.416 Y110.03 E.44818
G1 X135.881 Y110.03 E.01688
G1 X125.82 Y99.97 E.44818
G1 X125.285 Y99.97 E.01688
G1 X135.345 Y110.03 E.44818
G1 X134.809 Y110.03 E.01688
G1 X124.749 Y99.97 E.44818
G1 X124.213 Y99.97 E.01688
G1 X134.273 Y110.03 E.44818
G1 X133.737 Y110.03 E.01688
G1 X123.677 Y99.97 E.44818
G1 X123.141 Y99.97 E.01688
G1 X133.202 Y110.03 E.44818
G1 X132.666 Y110.03 E.01688
G1 X122.606 Y99.97 E.44818
G1 X122.07 Y99.97 E.01688
G1 X132.13 Y110.03 E.44818
G1 X131.594 Y110.03 E.01688
G1 X121.534 Y99.97 E.44818
G1 X120.998 Y99.97 E.01688
G1 X131.059 Y110.03 E.44818
G1 X130.523 Y110.03 E.01688
G1 X120.463 Y99.97 E.44818
G1 X119.927 Y99.97 E.01688
G1 X129.987 Y110.03 E.44818
G1 X129.451 Y110.03 E.01688
G1 X119.391 Y99.97 E.44818
G1 X118.855 Y99.97 E.01688
G1 X128.916 Y110.03 E.44818
G1 X128.38 Y110.03 E.01688
G1 X118.32 Y99.97 E.44818
G1 X117.784 Y99.97 E.01688
G1 X127.844 Y110.03 E.44818
G1 X127.308 Y110.03 E.01688
G1 X117.248 Y99.97 E.44818
G1 X116.712 Y99.97 E.01688
G1 X126.772 Y110.03 E.44818
G1 X126.237 Y110.03 E.01688
G1 X116.176 Y99.97 E.44818
G1 X115.641 Y99.97 E.01688
G1 X125.701 Y110.03 E.44818
G1 X125.165 Y110.03 E.01688
G1 X115.105 Y99.97 E.44818
G1 X114.569 Y99.97 E.01688
G1 X124.629 Y110.03 E.44818
G1 X124.094 Y110.03 E.01688
M73 P1 R112
G1 X114.033 Y99.97 E.44818
G1 X113.498 Y99.97 E.01688
G1 X123.558 Y110.03 E.44818
G1 X123.022 Y110.03 E.01688
G1 X112.962 Y99.97 E.44818
G1 X112.426 Y99.97 E.01688
G1 X122.486 Y110.03 E.44818
G1 X121.951 Y110.03 E.01688
G1 X111.89 Y99.97 E.44818
G1 X111.355 Y99.97 E.01688
G1 X121.415 Y110.03 E.44818
G1 X120.879 Y110.03 E.01688
G1 X111.797 Y100.948 E.40458
G1 X111.914 Y101.345 E.01301
