; generated by PrusaSlicer 2.5.0+win64 on 2023-08-01 at 12:25:49 UTC


;
;
; 

; external perimeters extrusion width = 0.45mm
; perimeters extrusion width = 0.45mm
; infill extrusion width = 0.45mm
; solid infill extrusion width = 0.45mm
; top infill extrusion width = 0.40mm
; first layer extrusion width = 0.42mm

M73 P0 R145
M73 Q0 S145
M201 X1000 Y1000 Z200 E5000 ; sets maximum accelerations, mm/sec^2
M203 X200 Y200 Z12 E120 ; sets maximum feedrates, mm / sec
M204 P1250 R1250 T1250 ; sets acceleration (P, T) and retract acceleration (R), mm/sec^2
M205 X8.00 Y8.00 Z0.40 E4.50 ; sets the jerk limits, mm/sec
M205 S0 T0 ; sets the minimum extruding and travel feed rate, mm/sec
M107
;TYPE:Custom
M862.3 P "MK3S" ; printer model check
M862.1 P0.4 ; nozzle diameter check
M115 U3.11.0 ; tell printer latest fw version
G90 ; use absolute coordinates
M83 ; extruder relative mode
M104 S215 ; set extruder temp
M140 S60 ; set bed temp
M190 S60 ; wait for bed temp
M109 S215 ; wait for extruder temp
G28 W ; home all without mesh bed level
G80 ; mesh bed leveling

G1 Z0.2 F720
G1 Y-3 F1000 ; go outside print area
G92 E0
G1 X60 E9 F1000 ; intro line
G1 X100 E12.5 F1000 ; intro line

G92 E0
M221 S95

; Don't change E values below. Excessive value can damage the printer.
M907 E430 ; set extruder motor current
G21 ; set units to millimeters
G90 ; use absolute coordinates
M83 ; use relative distances for extrusion
M900 K0.05 ; Filament gcode LA 1.5
M900 K30 ; Filament gcode LA 1.0
M107
;LAYER_CHANGE
;Z:0.2
;HEIGHT:0.2
;BEFORE_LAYER_CHANGE
G92 E0.0
;0.2


G1 E-.8 F2100
G1 Z.4 F720
;AFTER_LAYER_CHANGE
;0.2
G1 X107.653 Y90.64 F10800
G1 Z.2 F720
G1 E.8 F2100
M204 S800
;TYPE:Skirt/Brim
;WIDTH:0.42
G1 F1200
G1 X110.64 Y87.653 E.13247
G1 X112.588 Y86.846 E.06609
G1 X125.412 Y86.846 E.40212
G1 X127.36 Y87.653 E.06609
G1 X130.603 Y90.935 E.14469
G1 X142.603 Y106.935 E.62709
G1 X143.154 Y108.588 E.05462
G1 X143.154 Y117.412 E.2767
G1 X142.347 Y119.36 E.06609
G1 X139.36 Y122.347 E.13247
G1 X137.412 Y123.154 E.06609
G1 X118.588 Y123.154 E.59024
G1 X116.64 Y122.347 E.06609
G1 X113.653 Y119.36 E.13247
G1 X113.021 Y118.38 E.03656
G1 X107.021 Y102.38 E.53578
G1 X106.846 Y101.412 E.03082
G1 X106.846 Y92.588 E.2767
G1 X107.63 Y90.695 E.06421
M204 S1000
G1 X107.919 Y90.907 F10800
M204 S800
G1 F1200
G1 X110.907 Y87.919 E.13247
G1 X112.588 Y87.223 E.05704
G1 X125.412 Y87.223 E.40212
G1 X127.093 Y87.919 E.05704
G1 X130.302 Y91.161 E.14301
G1 X142.302 Y107.161 E.62709
G1 X142.777 Y108.588 E.04714
M73 P0 R144
G1 X142.777 Y117.412 E.2767
G1 X142.081 Y119.093 E.05704
G1 X139.093 Y122.081 E.13247
G1 X137.412 Y122.777 E.05704
G1 X118.588 Y122.777 E.59024
G1 X116.907 Y122.081 E.05704
G1 X113.919 Y119.093 E.13247
G1 X113.374 Y118.247 E.03156
G1 X107.374 Y102.247 E.53578
G1 X107.223 Y101.412 E.0266
G1 X107.223 Y92.588 E.2767
G1 X107.896 Y90.962 E.05516
M204 S1000
;WIPE_START
G1 F8640
G1 X110.211 Y88.622 E-.76
;WIPE_END
G1 E-.04 F2100
G1 Z.6 F720
G1 X110.455 Y92.438 F10800
G1 Z.2 F720
G1 E.8 F2100
M204 S800
G1 F1200
G1 X110.762 Y91.906 E.01925
G1 X111.661 Y90.957 E.04098
G1 X112.642 Y90.336 E.03642
G1 X113.821 Y89.952 E.03887
G1 X124.006 Y89.925 E.31932
G1 X124.872 Y90.136 E.02794
G1 X125.706 Y90.51 E.02867
G1 X126.81 Y91.394 E.04435
G1 X127.618 Y92.548 E.04417
G1 X128.067 Y93.947 E.04606
G1 X128.111 Y107.887 E.43707
G1 X129.771 Y107.887 E.05204
G1 X130.583 Y107.022 E.03719
G1 X131.575 Y106.368 E.03725
G1 X133.109 Y105.908 E.0502
G1 X135.802 Y105.902 E.08445
G1 X136.995 Y106.182 E.03843
G1 X138.053 Y106.735 E.03742
G1 X138.96 Y107.56 E.03844
G1 X139.648 Y108.608 E.03931
G1 X140.086 Y110.075 E.04801
G1 X140.082 Y115.961 E.18455
G1 X139.781 Y117.079 E.03632
G1 X139.281 Y118.036 E.03383
G1 X138.399 Y118.986 E.04065
G1 X137.429 Y119.631 E.03653
G1 X135.744 Y120.113 E.05497
G1 X120.282 Y120.113 E.48479
G1 X118.97 Y119.799 E.04231
G1 X118.05 Y119.341 E.03223
G1 X117.015 Y118.4 E.04387
G1 X116.369 Y117.429 E.03654
G1 X115.887 Y115.744 E.05497
G1 X115.887 Y104.088 E.36548
G1 X113.847 Y104.049 E.06395
G1 X112.315 Y103.501 E.05102
G1 X111.441 Y102.853 E.03412
G1 X110.727 Y102.035 E.03404
G1 X110.211 Y101.061 E.03456
G1 X109.884 Y99.689 E.04423
G1 X110.013 Y93.504 E.19398
G1 X110.316 Y92.679 E.02755
G1 X110.425 Y92.49 E.00684
M204 S1000
G1 X110.75 Y92.678 F10800
M204 S800
G1 F1200
G1 X111.077 Y92.115 E.02041
G1 X111.917 Y91.235 E.03815
G1 X112.822 Y90.668 E.03348
G1 X113.908 Y90.32 E.03577
G1 X123.938 Y90.297 E.31449
G1 X124.765 Y90.499 E.02667
M73 Q0 S144
G1 X125.529 Y90.843 E.02627
G1 X126.552 Y91.67 E.04124
G1 X127.292 Y92.738 E.04075
G1 X127.698 Y94.032 E.04253
G1 X127.735 Y108.264 E.44622
G1 X129.987 Y108.264 E.07062
G1 X130.166 Y108.004 E.00988
G1 X130.809 Y107.325 E.02931
G1 X131.759 Y106.698 E.03569
G1 X133.188 Y106.277 E.04672
G1 X135.779 Y106.279 E.08123
G1 X136.884 Y106.543 E.03561
G1 X137.854 Y107.057 E.03444
G1 X138.688 Y107.822 E.03547
G1 X139.296 Y108.744 E.03463
G1 X139.709 Y110.103 E.04455
G1 X139.711 Y115.888 E.18137
G1 X139.436 Y116.926 E.03366
G1 X138.987 Y117.798 E.03078
G1 X138.138 Y118.714 E.03915
G1 X137.296 Y119.278 E.03177
G1 X135.717 Y119.736 E.05155
G1 X120.305 Y119.736 E.48322
G1 X119.081 Y119.438 E.03951
G1 X118.244 Y119.016 E.0294
G1 X117.286 Y118.137 E.04075
G1 X116.722 Y117.296 E.03176
G1 X116.264 Y115.717 E.05155
G1 X116.264 Y103.718 E.37623
G1 X113.886 Y103.673 E.07455
G1 X112.471 Y103.156 E.04723
G1 X111.711 Y102.589 E.02975
G1 X111.048 Y101.837 E.03142
G1 X110.571 Y100.948 E.03163
G1 X110.262 Y99.671 E.04119
G1 X110.378 Y93.604 E.19027
G1 X110.665 Y92.825 E.02604
G1 X110.72 Y92.73 E.00343
M204 S1000
G1 X111.046 Y92.919 F10800
M204 S800
G1 F1200
G1 X111.391 Y92.324 E.02157
G1 X112.171 Y91.514 E.03527
G1 X112.999 Y91.002 E.03053
G1 X113.994 Y90.688 E.03269
G1 X123.873 Y90.669 E.30974
G1 X124.626 Y90.85 E.02431
G1 X125.351 Y91.177 E.02492
G1 X126.292 Y91.944 E.03807
G1 X126.964 Y92.927 E.03733
G1 X127.33 Y94.115 E.039
G1 X127.359 Y108.641 E.45543
G1 X130.19 Y108.641 E.08878
G1 X130.451 Y108.251 E.01472
G1 X131.067 Y107.601 E.02808
G1 X131.941 Y107.03 E.03272
G1 X133.266 Y106.647 E.04326
G1 X135.756 Y106.656 E.07806
G1 X136.73 Y106.888 E.03141
G1 X137.619 Y107.353 E.03145
G1 X138.388 Y108.051 E.03257
G1 X138.944 Y108.883 E.03137
G1 X139.332 Y110.133 E.04104
G1 X139.341 Y115.815 E.17816
G1 X139.076 Y116.81 E.03226
G1 X138.693 Y117.561 E.02646
G1 X137.876 Y118.441 E.03765
G1 X137.16 Y118.924 E.02706
G1 X135.689 Y119.359 E.0481
G1 X120.329 Y119.359 E.48163
G1 X119.194 Y119.077 E.03667
G1 X118.439 Y118.693 E.02656
G1 X117.559 Y117.876 E.03765
G1 X117.076 Y117.16 E.02706
G1 X116.641 Y115.689 E.0481
G1 X116.641 Y103.348 E.38697
G1 X113.926 Y103.296 E.08513
G1 X112.63 Y102.813 E.04336
G1 X111.954 Y102.3 E.0266
G1 X111.369 Y101.638 E.02772
G1 X110.931 Y100.833 E.02871
G1 X110.639 Y99.653 E.03813
G1 X110.743 Y93.703 E.18658
G1 X111.015 Y92.971 E.02448
M204 S1000
G1 X111.348 Y93.144 F10800
M204 S800
G1 F1200
G1 X111.704 Y92.535 E.02214
G1 X112.425 Y91.795 E.03239
G1 X113.175 Y91.336 E.02758
G1 X114.078 Y91.057 E.02962
G1 X123.806 Y91.041 E.30503
G1 X124.52 Y91.212 E.02302
G1 X125.171 Y91.509 E.02243
G1 X126.03 Y92.217 E.03491
G1 X126.635 Y93.113 E.03389
G1 X126.961 Y94.197 E.0355
G1 X126.982 Y109.018 E.46469
G1 X130.394 Y109.018 E.10698
G1 X130.737 Y108.497 E.01954
G1 X131.325 Y107.877 E.02681
G1 X132.121 Y107.362 E.02971
G1 X133.342 Y107.017 E.0398
G1 X135.731 Y107.033 E.07489
G1 X136.617 Y107.248 E.02861
G1 X137.421 Y107.674 E.02853
G1 X138.089 Y108.282 E.02831
G1 X138.594 Y109.024 E.02814
G1 X138.955 Y110.163 E.03747
G1 X138.97 Y115.742 E.17492
G1 X138.717 Y116.692 E.03082
G1 X138.37 Y117.364 E.0237
G1 X137.615 Y118.168 E.0346
G1 X137.023 Y118.572 E.02247
G1 X135.661 Y118.982 E.04459
G1 X120.352 Y118.982 E.47999
G1 X119.308 Y118.717 E.03378
G1 X118.636 Y118.37 E.02372
G1 X117.832 Y117.615 E.03459
G1 X117.428 Y117.023 E.02247
G1 X117.018 Y115.661 E.04459
G1 X117.018 Y102.975 E.39776
G1 X114.025 Y102.931 E.09385
G1 X112.834 Y102.495 E.03977
G1 X112.223 Y102.034 E.024
G1 X111.688 Y101.436 E.02516
G1 X111.291 Y100.716 E.02578
G1 X111.017 Y99.633 E.03503
G1 X111.108 Y93.802 E.18285
G1 X111.327 Y93.201 E.02006
M204 S1000
G1 X111.681 Y93.33 F10800
M204 S800
G1 F1200
G1 X112.017 Y92.748 E.02106
G1 X112.676 Y92.077 E.0295
G1 X113.348 Y91.672 E.02461
G1 X114.16 Y91.426 E.02658
G1 X123.742 Y91.413 E.30043
G1 X124.381 Y91.563 E.02059
G1 X124.991 Y91.841 E.02102
G1 X125.767 Y92.488 E.03167
G1 X126.305 Y93.297 E.03044
G1 X126.591 Y94.276 E.03201
G1 X126.605 Y109.395 E.47403
G1 X130.666 Y109.395 E.12732
G1 X130.775 Y109.125 E.00911
G1 X131.023 Y108.744 E.01427
G1 X131.584 Y108.152 E.02557
G1 X132.253 Y107.716 E.02504
G1 X133.368 Y107.395 E.03638
G1 X135.707 Y107.41 E.07334
G1 X136.462 Y107.593 E.02436
G1 X137.223 Y107.996 E.027
G1 X137.818 Y108.545 E.02537
G1 X138.244 Y109.167 E.02367
G1 X138.578 Y110.195 E.03388
G1 X138.599 Y115.67 E.17166
G1 X138.358 Y116.575 E.02936
G1 X138.049 Y117.165 E.02089
G1 X137.355 Y117.895 E.03158
G1 X136.884 Y118.221 E.01798
G1 X135.632 Y118.605 E.04104
G1 X120.377 Y118.605 E.47833
G1 X119.425 Y118.358 E.03084
G1 X118.835 Y118.049 E.02087
G1 X118.105 Y117.355 E.03158
G1 X117.779 Y116.884 E.01798
G1 X117.395 Y115.632 E.04104
G1 X117.395 Y102.602 E.40857
G1 X114.122 Y102.565 E.10264
G1 X113.036 Y102.176 E.03617
G1 X112.489 Y101.767 E.02139
G1 X112.006 Y101.232 E.02262
G1 X111.649 Y100.597 E.02284
G1 X111.394 Y99.612 E.03189
G1 X111.474 Y93.901 E.17909
G1 X111.661 Y93.386 E.01718
M204 S1000
G1 X112.013 Y93.512 F10800
M204 S800
G1 F1200
G1 X112.329 Y92.96 E.01994
G1 X112.926 Y92.36 E.02653
G1 X113.519 Y92.008 E.02164
G1 X114.24 Y91.795 E.02357
G1 X123.677 Y91.785 E.29587
G1 X124.276 Y91.926 E.01929
G1 X124.809 Y92.172 E.01842
G1 X125.502 Y92.758 E.02844
G1 X125.973 Y93.478 E.02698
G1 X126.221 Y94.354 E.02854
G1 X126.228 Y109.772 E.48343
G1 X130.93 Y109.772 E.14743
G1 X131.103 Y109.312 E.01541
G1 X131.33 Y108.964 E.01303
G1 X131.811 Y108.453 E.022
G1 X132.388 Y108.069 E.02174
G1 X133.394 Y107.772 E.03287
G1 X135.681 Y107.787 E.07172
G1 X136.348 Y107.953 E.02155
G1 X136.987 Y108.291 E.02266
G1 X137.522 Y108.779 E.02269
G1 X137.896 Y109.314 E.02049
G1 X138.202 Y110.228 E.0302
G1 X138.228 Y115.597 E.16835
G1 X138 Y116.456 E.02787
G1 X137.729 Y116.963 E.01801
G1 X137.096 Y117.62 E.02862
G1 X136.741 Y117.87 E.01361
G1 X135.603 Y118.228 E.03741
G1 X120.402 Y118.228 E.47662
G1 X119.544 Y118 E.02785
G1 X119.037 Y117.729 E.01801
G1 X118.38 Y117.096 E.02862
G1 X118.13 Y116.741 E.01361
G1 X117.772 Y115.603 E.03741
G1 X117.772 Y102.227 E.4194
G1 X114.216 Y102.199 E.11149
G1 X113.236 Y101.855 E.03256
G1 X112.754 Y101.499 E.01879
G1 X112.322 Y101.026 E.0201
G1 X112.007 Y100.475 E.01989
G1 X111.771 Y99.591 E.0287
G1 X111.839 Y93.998 E.17536
G1 X111.993 Y93.569 E.0143
M204 S1000
G1 X112.348 Y93.696 F10800
M204 S800
G1 F1200
G1 X112.378 Y93.611 E.00282
G1 X112.64 Y93.175 E.01595
G1 X113.174 Y92.644 E.02362
G1 X113.649 Y92.363 E.01729
G1 X114.321 Y92.165 E.02199
G1 X123.614 Y92.157 E.29137
G1 X124.136 Y92.276 E.01678
G1 X124.626 Y92.503 E.01694
G1 X125.234 Y93.025 E.02512
G1 X125.639 Y93.656 E.02351
G1 X125.851 Y94.428 E.0251
G1 X125.851 Y110.149 E.49292
G1 X131.197 Y110.149 E.16761
G1 X131.432 Y109.498 E.02169
G1 X131.637 Y109.183 E.01179
G1 X132.041 Y108.752 E.01853
G1 X132.527 Y108.421 E.01843
G1 X133.421 Y108.149 E.0293
G1 X135.615 Y108.158 E.06878
G1 X136.196 Y108.299 E.01874
G1 X136.751 Y108.587 E.01962
G1 X137.251 Y109.042 E.0212
G1 X137.569 Y109.505 E.0176
G1 X137.834 Y110.316 E.02676
G1 X137.851 Y115.572 E.1648
G1 X137.642 Y116.334 E.02478
G1 X137.412 Y116.759 E.01515
G1 X136.84 Y117.343 E.02562
G1 X136.55 Y117.544 E.01106
G1 X135.574 Y117.851 E.03208
G1 X120.428 Y117.851 E.4749
G1 X119.666 Y117.642 E.02478
G1 X119.241 Y117.412 E.01515
G1 X118.657 Y116.84 E.02562
G1 X118.456 Y116.55 E.01106
G1 X118.149 Y115.574 E.03207
G1 X118.149 Y101.851 E.43028
G1 X114.308 Y101.832 E.12042
G1 X113.435 Y101.533 E.02895
G1 X113.018 Y101.228 E.01619
G1 X112.636 Y100.816 E.01762
G1 X112.363 Y100.35 E.01694
G1 X112.149 Y99.567 E.02545
G1 X112.205 Y94.095 E.17158
G1 X112.328 Y93.752 E.01142
M204 S1000
G1 X112.683 Y93.88 F10800
M204 S800
G1 F1200
G1 X112.727 Y93.757 E.00408
G1 X112.949 Y93.393 E.01339
G1 X113.421 Y92.93 E.02073
G1 X113.778 Y92.718 E.01301
G1 X114.402 Y92.534 E.02041
G1 X123.554 Y92.53 E.28694
G1 X123.997 Y92.627 E.01423
G1 X124.443 Y92.834 E.01541
G1 X124.966 Y93.291 E.02178
G1 X125.285 Y93.786 E.01847
G1 X125.474 Y94.455 E.02179
G1 X125.474 Y110.526 E.5039
G1 X131.528 Y110.526 E.18981
G1 X131.556 Y110.269 E.00811
G1 X131.762 Y109.682 E.01951
G1 X131.926 Y109.426 E.00953
G1 X132.276 Y109.048 E.01616
G1 X132.67 Y108.771 E.0151
G1 X133.451 Y108.526 E.02565
G1 X135.551 Y108.53 E.06587
G1 X136.048 Y108.646 E.01598
G1 X136.517 Y108.883 E.01649
G1 X136.98 Y109.305 E.01964
G1 X137.241 Y109.692 E.01462
G1 X137.466 Y110.401 E.02334
G1 X137.474 Y115.545 E.16129
G1 X137.286 Y116.209 E.02163
G1 X137.096 Y116.551 E.01229
G1 X136.586 Y117.063 E.02264
G1 X136.361 Y117.217 E.00855
G1 X135.545 Y117.474 E.02682
G1 X120.455 Y117.474 E.47316
G1 X119.791 Y117.286 E.02163
G1 X119.449 Y117.096 E.01229
G1 X118.937 Y116.586 E.02264
G1 X118.783 Y116.361 E.00855
G1 X118.526 Y115.545 E.02682
G1 X118.526 Y101.474 E.44119
G1 X114.398 Y101.465 E.12944
G1 X113.631 Y101.21 E.02534
G1 X113.281 Y100.958 E.01351
G1 X112.926 Y100.575 E.01638
G1 X112.719 Y100.223 E.0128
G1 X112.526 Y99.543 E.02217
G1 X112.571 Y94.193 E.16775
G1 X112.663 Y93.936 E.00854
M204 S1000
G1 X113.018 Y94.063 F10800
M204 S800
G1 F1200
G1 X113.075 Y93.904 E.0053
G1 X113.256 Y93.613 E.01076
G1 X113.667 Y93.217 E.01789
G1 X113.908 Y93.073 E.0088
G1 X114.483 Y92.903 E.01881
G1 X123.531 Y92.907 E.2837
G1 X123.891 Y92.99 E.01157
G1 X124.256 Y93.162 E.01266
G1 X124.696 Y93.554 E.01848
G1 X124.931 Y93.92 E.01362
G1 X125.097 Y94.483 E.01841
G1 X125.097 Y110.903 E.51485
G1 X131.905 Y110.903 E.21346
G1 X131.924 Y110.357 E.01712
G1 X132.093 Y109.862 E.01641
G1 X132.215 Y109.669 E.00717
G1 X132.54 Y109.318 E.01501
G1 X132.816 Y109.12 E.01064
G1 X133.481 Y108.903 E.02194
G1 X135.491 Y108.903 E.06301
G1 X135.9 Y108.993 E.01311
G1 X136.322 Y109.207 E.01485
G1 X136.705 Y109.564 E.01641
G1 X136.91 Y109.875 E.01169
G1 X137.097 Y110.484 E.01996
G1 X137.097 Y115.517 E.15781
G1 X136.931 Y116.08 E.01838
G1 X136.782 Y116.34 E.00942
G1 X136.336 Y116.781 E.01967
G1 X136.175 Y116.888 E.00606
G1 X135.516 Y117.097 E.02167
G1 X120.483 Y117.097 E.47136
G1 X119.92 Y116.931 E.01838
G1 X119.66 Y116.782 E.00942
G1 X119.219 Y116.336 E.01967
G1 X119.112 Y116.175 E.00606
G1 X118.903 Y115.516 E.02167
G1 X118.903 Y101.097 E.45211
G1 X114.484 Y101.097 E.13856
G1 X113.824 Y100.884 E.02175
G1 X113.544 Y100.687 E.01074
G1 X113.216 Y100.333 E.01513
G1 X113.073 Y100.092 E.00877
G1 X112.903 Y99.516 E.01884
G1 X112.937 Y94.29 E.16388
G1 X112.997 Y94.12 E.00565
M204 S1000
G1 X113.352 Y94.247 F10800
M204 S800
G1 F1200
G1 X113.422 Y94.052 E.00648
G1 X113.56 Y93.837 E.00802
G1 X113.91 Y93.505 E.01513
G1 X114.042 Y93.426 E.00483
G1 X114.513 Y93.28 E.01543
G1 X123.509 Y93.284 E.28209
G1 X123.747 Y93.339 E.00767
G1 X124.068 Y93.491 E.01111
G1 X124.423 Y93.815 E.01508
G1 X124.579 Y94.057 E.00902
G1 X124.72 Y94.512 E.01495
G1 X124.72 Y111.28 E.52574
G1 X132.282 Y111.28 E.23712
G1 X132.291 Y110.446 E.02616
G1 X132.428 Y110.038 E.01349
G1 X132.505 Y109.91 E.0047
G1 X132.806 Y109.586 E.01386
G1 X132.967 Y109.466 E.0063
G1 X133.514 Y109.28 E.0181
G1 X135.471 Y109.28 E.06138
G1 X135.751 Y109.341 E.00898
G1 X136.126 Y109.53 E.01316
G1 X136.426 Y109.819 E.01306
G1 X136.579 Y110.057 E.00886
G1 X136.72 Y110.512 E.01496
G1 X136.72 Y115.488 E.15599
G1 X136.579 Y115.945 E.015
G1 X136.472 Y116.125 E.00656
G1 X136.089 Y116.496 E.01672
G1 X135.993 Y116.557 E.00358
G1 X135.487 Y116.72 E.01667
G1 X120.512 Y116.72 E.46951
G1 X120.055 Y116.579 E.015
G1 X119.875 Y116.472 E.00656
G1 X119.504 Y116.089 E.01672
G1 X119.443 Y115.993 E.00358
G1 X119.28 Y115.487 E.01667
G1 X119.28 Y100.72 E.463
G1 X114.514 Y100.72 E.14945
G1 X114.014 Y100.558 E.01646
