; generated by PrusaSlicer 2.5.0+win64 on 2023-08-01 at 12:26:48 UTC


;
;
; 

; external perimeters extrusion width = 0.45mm
; perimeters extrusion width = 0.45mm
; infill extrusion width = 0.45mm
; solid infill extrusion width = 0.45mm
; top infill extrusion width = 0.40mm
; first layer extrusion width = 0.42mm

; external perimeters extrusion width = 0.45mm
; perimeters extrusion width = 0.45mm
; infill extrusion width = 0.45mm
; solid infill extrusion width = 0.45mm
; top infill extrusion width = 0.40mm
; first layer extrusion width = 0.42mm

M73 P0 R24
M73 Q0 S25
M201 X1000 Y1000 Z200 E5000 ; sets maximum accelerations, mm/sec^2
M203 X200 Y200 Z12 E120 ; sets maximum feedrates, mm / sec
M204 P1250 R1250 T1250 ; sets acceleration (P, T) and retract acceleration (R), mm/sec^2
M205 X8.00 Y8.00 Z0.40 E4.50 ; sets the jerk limits, mm/sec
M205 S0 T0 ; sets the minimum extruding and travel feed rate, mm/sec
M107
;TYPE:Custom
M862.3 P "MK3S" ; printer model check
M862.1 P0.4 ; nozzle diameter check
M115 U3.11.0 ; tell printer latest fw version
G90 ; use absolute coordinates
M83 ; extruder relative mode
M104 S215 ; set extruder temp
M140 S60 ; set bed temp
M190 S60 ; wait for bed temp
M109 S215 ; wait for extruder temp
G28 W ; home all without mesh bed level
G80 ; mesh bed leveling

G1 Z0.2 F720
G1 Y-3 F1000 ; go outside print area
G92 E0
G1 X60 E9 F1000 ; intro line
G1 X100 E12.5 F1000 ; intro line

G92 E0
M221 S95

; Don't change E values below. Excessive value can damage the printer.
M907 E430 ; set extruder motor current
G21 ; set units to millimeters
G90 ; use absolute coordinates
M83 ; use relative distances for extrusion
M900 K0.05 ; Filament gcode LA 1.5
M900 K30 ; Filament gcode LA 1.0
M107
;LAYER_CHANGE
;Z:0.2
;HEIGHT:0.2
;BEFORE_LAYER_CHANGE
G92 E0.0
;0.2


G1 E-.8 F2100
G1 Z.4 F720
;AFTER_LAYER_CHANGE
;0.2
G1 X103.015 Y75.193 F10800
G1 Z.2 F720
M73 Q0 S24
G1 E.8 F2100
M204 S800
;TYPE:Skirt/Brim
;WIDTH:0.42
G1 F1200
G1 X104.06 Y74.317 E.04278
G1 X105 Y74.123 E.03008
G1 X145 Y74.123 E1.25417
G1 X146.307 Y74.515 E.04278
G1 X147.183 Y75.56 E.04278
G1 X147.377 Y76.5 E.03008
G1 X147.377 Y133.5 E1.78719
G1 X146.985 Y134.807 E.04278
G1 X145.94 Y135.683 E.04278
G1 X145 Y135.877 E.03008
G1 X105 Y135.877 E1.25417
G1 X103.693 Y135.485 E.04278
G1 X102.817 Y134.44 E.04278
G1 X102.623 Y133.5 E.03008
G1 X102.623 Y76.5 E1.78719
G1 X102.997 Y75.25 E.0409
M204 S1000
; printing object drzalo_pokrov.STL id:0 copy 0
;WIPE_START
M73 P1 R24
M73 Q1 S24
G1 F8640
G1 X104.06 Y74.317 E-.32671
G1 X105 Y74.123 E-.22155
G1 X105.917 Y74.123 E-.21174
;WIPE_END
G1 E-.04 F2100
G1 Z.6 F720
G1 X106.806 Y81.642 F10800
G1 Z.2 F720
G1 E.8 F2100
M204 S800
;TYPE:Perimeter
;WIDTH:0.56276
G1 F1200
G1 X105.858 Y81.642 E.04094
G1 X105.858 Y80.456 E.05122
G1 X105.998 Y80.755 E.01426
G1 X106.251 Y81.133 E.01965
G1 X106.565 Y81.461 E.01965
G1 X106.758 Y81.606 E.0104
M204 S1000
;WIPE_START
G1 F8640
G1 X105.858 Y81.642 E-.20776
G1 X105.858 Y80.456 E-.27363
G1 X105.998 Y80.755 E-.07615
G1 X106.251 Y81.133 E-.10494
G1 X106.543 Y81.438 E-.09751
;WIPE_END
G1 E-.04 F2100
G1 Z.6 F720
G1 X106.806 Y77.358 F10800
G1 Z.2 F720
G1 E.8 F2100
M204 S800
;WIDTH:0.562761
G1 F1200
G1 X106.65 Y77.467 E.0082
G1 X106.322 Y77.782 E.01965
G1 X106.053 Y78.148 E.01965
G1 X105.858 Y78.544 E.01904
G1 X105.858 Y77.358 E.05122
G1 X106.746 Y77.358 E.03834
M204 S1000
;WIPE_START
G1 F8640
G1 X106.65 Y77.467 E-.03344
G1 X106.322 Y77.782 E-.10495
G1 X106.053 Y78.148 E-.10495
G1 X105.858 Y78.544 E-.10171
G1 X105.858 Y77.358 E-.27363
G1 X106.471 Y77.358 E-.14133
;WIPE_END
G1 E-.04 F2100
G1 Z.6 F720
G1 X139.611 Y81.713 F10800
G1 Z.2 F720
G1 E.8 F2100
M204 S800
;WIDTH:0.419999
G1 F1200
G1 X109.522 Y81.713 E.94343
G1 X109.875 Y81.474 E.01338
G1 X110.194 Y81.168 E.01386
G1 X110.468 Y80.785 E.01475
G1 X110.649 Y80.414 E.01296
G1 X110.772 Y79.989 E.01386
G1 X110.819 Y79.549 E.01386
G1 X110.789 Y79.108 E.01386
G1 X110.683 Y78.679 E.01386
G1 X110.504 Y78.275 E.01386
G1 X110.257 Y77.908 E.01386
G1 X109.951 Y77.589 E.01386
G1 X109.522 Y77.287 E.01645
G1 X139.611 Y77.287 E.94343
G1 X139.258 Y77.526 E.01338
G1 X138.939 Y77.832 E.01386
G1 X138.679 Y78.189 E.01386
G1 X138.484 Y78.586 E.01386
G1 X138.361 Y79.011 E.01386
G1 X138.314 Y79.451 E.01386
G1 X138.344 Y79.892 E.01386
G1 X138.45 Y80.321 E.01386
G1 X138.629 Y80.725 E.01386
G1 X138.876 Y81.092 E.01386
G1 X139.182 Y81.411 E.01386
G1 X139.562 Y81.678 E.01457
M204 S1000
;WIPE_START
G1 F8640
G1 X136.271 Y81.682 E-.76
;WIPE_END
G1 E-.04 F2100
G1 Z.6 F720
G1 X144.213 Y81.713 F10800
G1 Z.2 F720
G1 E.8 F2100
M204 S800
G1 F1200
G1 X142.089 Y81.713 E.0666
G1 X142.442 Y81.474 E.01338
G1 X142.761 Y81.168 E.01386
G1 X143.021 Y80.811 E.01386
G1 X143.216 Y80.414 E.01386
G1 X143.339 Y79.989 E.01386
G1 X143.386 Y79.549 E.01386
G1 X143.356 Y79.108 E.01386
G1 X143.25 Y78.679 E.01386
G1 X143.071 Y78.275 E.01386
G1 X142.824 Y77.908 E.01386
G1 X142.518 Y77.589 E.01386
G1 X142.089 Y77.287 E.01645
G1 X144.213 Y77.287 E.0666
G1 X144.213 Y81.653 E.13689
M204 S1000
G1 X144.59 Y82.09 F10800
M204 S800
;TYPE:External perimeter
G1 F1200
G1 X142.174 Y82.09 E.07576
;WIDTH:0.421734
G1 X141.646 Y82.089 E.01661
;WIDTH:0.446805
G1 X140.815 Y82.077 E.02793
G1 X140.054 Y82.09 E.02557
;WIDTH:0.419999
G1 X109.607 Y82.09 E.95463
;WIDTH:0.421734
G1 X109.08 Y82.089 E.01661
;WIDTH:0.446805
G1 X108.248 Y82.077 E.02793
G1 X107.487 Y82.09 E.02557
;WIDTH:0.419999
G1 X105.41 Y82.09 E.06512
G1 X105.41 Y76.91 E.16242
G1 X107.404 Y76.91 E.06251
;WIDTH:0.461816
G1 X107.904 Y76.931 E.01745
G1 X108.658 Y76.931 E.02624
;WIDTH:0.461613
G1 X109.163 Y76.91 E.01761
;WIDTH:0.419999
G1 X139.97 Y76.91 E.96594
;WIDTH:0.461817
G1 X140.471 Y76.931 E.01745
G1 X141.224 Y76.931 E.02624
;WIDTH:0.461613
G1 X141.73 Y76.91 E.01761
;WIDTH:0.419999
G1 X144.59 Y76.91 E.08968
G1 X144.59 Y77.913 E.03145
G1 X144.59 Y82.03 E.12909
M204 S1000
;WIPE_START
G1 F8640
G1 X142.174 Y82.09 E-.55811
G1 X141.646 Y82.089 E-.12176
G1 X141.299 Y82.084 E-.08013
;WIPE_END
G1 E-.04 F2100
G1 Z.6 F720
G1 X141.826 Y81.415 F10800
G1 Z.2 F720
G1 E.8 F2100
M204 S800
;WIDTH:0.460043
G1 F1200
G1 X141.246 Y81.644 E.02161
G1 X140.832 Y81.673 E.0144
;WIDTH:0.454095
G1 X140.454 Y81.641 E.01297
G1 X139.784 Y81.379 E.0246
;WIDTH:0.419999
G1 X139.449 Y81.144 E.01283
G1 X139.185 Y80.876 E.01181
G1 X138.971 Y80.566 E.01181
G1 X138.815 Y80.223 E.01181
G1 X138.72 Y79.859 E.01181
G1 X138.69 Y79.484 E.01181
G1 X138.726 Y79.109 E.01181
G1 X138.826 Y78.746 E.01181
G1 X138.987 Y78.406 E.01181
G1 X139.206 Y78.099 E.01181
G1 X139.474 Y77.835 E.01181
G1 X139.784 Y77.621 E.01181
;WIDTH:0.460043
G1 X140.454 Y77.356 E.02497
G1 X140.843 Y77.328 E.01354
;WIDTH:0.468249
G1 X141.247 Y77.352 E.01433
G1 X141.916 Y77.621 E.02548
;WIDTH:0.419999
G1 X142.251 Y77.856 E.01283
G1 X142.515 Y78.124 E.01181
G1 X142.729 Y78.434 E.01181
G1 X142.885 Y78.777 E.01181
G1 X142.98 Y79.141 E.01181
G1 X143.011 Y79.5 E.0113
G1 X142.974 Y79.891 E.01232
M73 P2 R24
G1 X142.874 Y80.254 E.01181
M73 Q2 S24
G1 X142.713 Y80.594 E.01181
G1 X142.494 Y80.901 E.01181
G1 X142.226 Y81.165 E.01181
G1 X141.916 Y81.379 E.01181
;WIDTH:0.460043
G1 X141.882 Y81.392 E.00128
M204 S1000
;WIPE_START
G1 F8640
G1 X141.246 Y81.644 E-.15771
G1 X140.832 Y81.673 E-.09585
G1 X140.454 Y81.641 E-.08763
G1 X139.784 Y81.379 E-.16614
G1 X139.449 Y81.144 E-.09451
G1 X139.185 Y80.876 E-.08694
G1 X139.01 Y80.622 E-.07122
;WIPE_END
G1 E-.04 F2100
G1 Z.6 F720
G1 X110.403 Y79.906 F10800
G1 Z.2 F720
G1 E.8 F2100
M204 S800
;WIDTH:0.419999
G1 F1200
G1 X110.307 Y80.254 E.01131
G1 X110.156 Y80.572 E.01103
G1 X109.927 Y80.901 E.01257
G1 X109.659 Y81.165 E.01181
G1 X109.349 Y81.379 E.01181
;WIDTH:0.460043
G1 X108.68 Y81.644 E.02497
G1 X108.266 Y81.673 E.0144
;WIDTH:0.454095
G1 X107.888 Y81.641 E.01297
G1 X107.217 Y81.379 E.0246
;WIDTH:0.419999
G1 X106.882 Y81.144 E.01283
G1 X106.618 Y80.876 E.01181
G1 X106.404 Y80.566 E.01181
G1 X106.248 Y80.223 E.01181
G1 X106.153 Y79.859 E.01181
G1 X106.123 Y79.484 E.01181
G1 X106.159 Y79.109 E.01181
G1 X106.259 Y78.746 E.01181
G1 X106.421 Y78.406 E.01181
G1 X106.635 Y78.103 E.01162
G1 X106.907 Y77.835 E.01199
G1 X107.217 Y77.621 E.01181
;WIDTH:0.460043
G1 X107.887 Y77.356 E.02497
G1 X108.276 Y77.328 E.01354
;WIDTH:0.468249
G1 X108.681 Y77.352 E.01433
G1 X109.349 Y77.621 E.02548
;WIDTH:0.419999
G1 X109.684 Y77.856 E.01283
G1 X109.949 Y78.124 E.01181
G1 X110.162 Y78.434 E.01181
G1 X110.319 Y78.777 E.01181
G1 X110.413 Y79.141 E.01181
G1 X110.443 Y79.516 E.01181
G1 X110.412 Y79.847 E.01042
M204 S1000
G1 X110.678 Y80.141 F10800
;WIPE_START
G1 F8640
G1 X110.307 Y80.254 E-.09703
G1 X110.156 Y80.572 E-.08124
G1 X109.927 Y80.901 E-.09255
G1 X109.659 Y81.165 E-.08697
G1 X109.349 Y81.379 E-.08694
G1 X108.68 Y81.644 E-.16623
G1 X108.266 Y81.673 E-.09585
G1 X108.036 Y81.654 E-.05319
;WIPE_END
G1 E-.04 F2100
G1 Z.6 F720
G1 X105.785 Y79.94 F10800
G1 Z.2 F720
G1 E.8 F2100
M204 S800
;TYPE:Perimeter
;WIDTH:0.416652
G1 F1200
G1 X105.782 Y79.109 E.02583
M204 S1000
;WIPE_START
G1 F8640
G1 X105.785 Y79.94 E-.19195
;WIPE_END
G1 E-.60805 F2100
G1 Z.6 F720
G1 X138.846 Y77.778 F10800
G1 Z.2 F720
G1 E.8 F2100
M204 S800
;TYPE:Solid infill
;WIDTH:0.420054
G1 F1200
G1 X138.637 Y77.57 E.00924
G1 X138.104 Y77.57 E.01673
G1 X138.494 Y77.96 E.0173
G1 X138.307 Y78.307 E.01235
G1 X137.571 Y77.57 E.03267
G1 X137.037 Y77.57 E.01673
G1 X138.16 Y78.693 E.0498
G1 X138.086 Y78.944 E.00821
G1 X138.067 Y79.133 E.00595
G1 X136.504 Y77.57 E.06931
G1 X135.971 Y77.57 E.01673
G1 X138.044 Y79.643 E.09194
G1 X138.086 Y80.056 E.01302
G1 X138.154 Y80.287 E.00755
G1 X135.437 Y77.57 E.1205
G1 X134.904 Y77.57 E.01673
G1 X138.764 Y81.43 E.1712
G1 X138.231 Y81.43 E.01673
G1 X134.37 Y77.57 E.1712
G1 X133.837 Y77.57 E.01673
G1 X137.697 Y81.43 E.1712
G1 X137.164 Y81.43 E.01673
G1 X133.304 Y77.57 E.1712
G1 X132.77 Y77.57 E.01673
G1 X136.631 Y81.43 E.1712
G1 X136.097 Y81.43 E.01673
G1 X132.237 Y77.57 E.1712
G1 X131.704 Y77.57 E.01673
G1 X135.564 Y81.43 E.1712
G1 X135.031 Y81.43 E.01673
G1 X131.17 Y77.57 E.1712
G1 X130.637 Y77.57 E.01673
G1 X134.497 Y81.43 E.1712
G1 X133.964 Y81.43 E.01673
G1 X130.104 Y77.57 E.1712
G1 X129.57 Y77.57 E.01673
G1 X133.431 Y81.43 E.1712
G1 X132.897 Y81.43 E.01673
G1 X129.037 Y77.57 E.1712
G1 X128.504 Y77.57 E.01673
G1 X132.364 Y81.43 E.1712
G1 X131.831 Y81.43 E.01673
G1 X127.97 Y77.57 E.1712
G1 X127.437 Y77.57 E.01673
G1 X131.297 Y81.43 E.1712
G1 X130.764 Y81.43 E.01673
G1 X126.904 Y77.57 E.1712
G1 X126.37 Y77.57 E.01673
G1 X130.231 Y81.43 E.1712
G1 X129.697 Y81.43 E.01673
G1 X125.837 Y77.57 E.1712
G1 X125.304 Y77.57 E.01673
G1 X129.164 Y81.43 E.1712
G1 X128.63 Y81.43 E.01673
G1 X124.77 Y77.57 E.1712
G1 X124.237 Y77.57 E.01673
G1 X128.097 Y81.43 E.1712
G1 X127.564 Y81.43 E.01673
G1 X123.704 Y77.57 E.1712
G1 X123.17 Y77.57 E.01673
G1 X127.03 Y81.43 E.1712
G1 X126.497 Y81.43 E.01673
G1 X122.637 Y77.57 E.1712
G1 X122.103 Y77.57 E.01673
G1 X125.964 Y81.43 E.1712
G1 X125.43 Y81.43 E.01673
G1 X121.57 Y77.57 E.1712
G1 X121.037 Y77.57 E.01673
G1 X124.897 Y81.43 E.1712
G1 X124.364 Y81.43 E.01673
G1 X120.503 Y77.57 E.1712
G1 X119.97 Y77.57 E.01673
G1 X123.83 Y81.43 E.1712
G1 X123.297 Y81.43 E.01673
G1 X119.437 Y77.57 E.1712
G1 X118.903 Y77.57 E.01673
G1 X122.764 Y81.43 E.1712
G1 X122.23 Y81.43 E.01673
G1 X118.37 Y77.57 E.1712
G1 X117.837 Y77.57 E.01673
G1 X121.697 Y81.43 E.1712
G1 X121.164 Y81.43 E.01673
G1 X117.303 Y77.57 E.1712
G1 X116.77 Y77.57 E.01673
G1 X120.63 Y81.43 E.1712
G1 X120.097 Y81.43 E.01673
G1 X116.237 Y77.57 E.1712
G1 X115.703 Y77.57 E.01673
G1 X119.564 Y81.43 E.1712
G1 X119.03 Y81.43 E.01673
M73 P3 R24
M73 Q3 S24
G1 X115.17 Y77.57 E.1712
G1 X114.637 Y77.57 E.01673
G1 X118.497 Y81.43 E.1712
G1 X117.964 Y81.43 E.01673
G1 X114.103 Y77.57 E.1712
G1 X113.57 Y77.57 E.01673
G1 X117.43 Y81.43 E.1712
G1 X116.897 Y81.43 E.01673
G1 X113.037 Y77.57 E.1712
G1 X112.503 Y77.57 E.01673
G1 X116.363 Y81.43 E.1712
G1 X115.83 Y81.43 E.01673
G1 X111.97 Y77.57 E.1712
G1 X111.437 Y77.57 E.01673
G1 X115.297 Y81.43 E.1712
G1 X114.763 Y81.43 E.01673
M73 P3 R23
G1 X110.903 Y77.57 E.1712
G1 X110.37 Y77.57 E.01673
G1 X114.23 Y81.43 E.1712
G1 X113.697 Y81.43 E.01673
G1 X110.979 Y78.712 E.12054
G1 X111.047 Y78.944 E.00758
G1 X111.09 Y79.356 E.013
G1 X113.163 Y81.43 E.09197
G1 X112.63 Y81.43 E.01673
G1 X111.066 Y79.867 E.06934
G1 X111.047 Y80.056 E.00597
G1 X110.973 Y80.307 E.00819
G1 X112.097 Y81.43 E.04983
G1 X111.563 Y81.43 E.01673
G1 X110.826 Y80.693 E.03268
G1 X110.637 Y81.038 E.01232
G1 X111.03 Y81.43 E.01741
G1 X110.497 Y81.43 E.01673
G1 X110.287 Y81.221 E.00929
M204 S1000
;WIPE_START
G1 F8640
G1 X110.497 Y81.43 E-.0684
G1 X111.03 Y81.43 E-.12315
G1 X110.637 Y81.038 E-.12818
G1 X110.826 Y80.693 E-.09071
G1 X111.563 Y81.43 E-.24065
G1 X112.035 Y81.43 E-.10892
;WIPE_END
G1 E-.04 F2100
G1 Z.6 F720
G1 X144.1 Y78.168 F10800
G1 Z.2 F720
G1 E.8 F2100
M204 S800
;WIDTH:0.422497
G1 F1200
G1 X143.502 Y77.57 E.02669
G1 X142.965 Y77.57 E.01694
G1 X143.93 Y78.535 E.04307
G1 X143.93 Y79.072 E.01694
G1 X143.535 Y78.677 E.01764
G1 X143.614 Y78.944 E.0088
G1 X143.654 Y79.332 E.01232
G1 X143.93 Y79.608 E.01233
G1 X143.93 Y80.145 E.01694
G1 X143.64 Y79.855 E.01295
G1 X143.628 Y79.99 E.00427
G1 X143.542 Y80.294 E.00997
G1 X143.93 Y80.682 E.01734
G1 X143.93 Y81.219 E.01694
G1 X143.397 Y80.685 E.02381
G1 X143.209 Y81.035 E.01252
G1 X143.605 Y81.43 E.01764
G1 X143.068 Y81.43 E.01694
G1 X142.857 Y81.219 E.00942
M204 S1000
; stop printing object drzalo_pokrov.STL id:0 copy 0
M106 S84.15
;LAYER_CHANGE
;Z:0.4
;HEIGHT:0.2
;BEFORE_LAYER_CHANGE
G92 E0.0
;0.4


;WIPE_START
G1 F8640
G1 X143.068 Y81.43 E-.06891
G1 X143.605 Y81.43 E-.12395
G1 X143.209 Y81.035 E-.12902
G1 X143.397 Y80.685 E-.09156
G1 X143.93 Y81.219 E-.17418
G1 X143.93 Y80.682 E-.12395
G1 X143.782 Y80.534 E-.04843
;WIPE_END
G1 E-.04 F2100
G1 Z.6 F720
;AFTER_LAYER_CHANGE
;0.4
M104 S210 ; set temperature
G1 X147.377 Y80.534 F10800
G1 Z.4 F720
G1 E.8 F2100
;TYPE:Skirt/Brim
;WIDTH:0.42
G1 F3000
G1 X147.377 Y133.5 E1.66072
G1 X146.985 Y134.807 E.04278
G1 X145.94 Y135.683 E.04278
G1 X145 Y135.877 E.03008
G1 X105 Y135.877 E1.25417
G1 X103.693 Y135.485 E.04278
G1 X102.817 Y134.44 E.04278
G1 X102.623 Y133.5 E.03008
G1 X102.623 Y76.5 E1.78719
G1 X103.015 Y75.193 E.04278
G1 X104.06 Y74.317 E.04278
G1 X105 Y74.123 E.03008
G1 X145 Y74.123 E1.25417
G1 X146.307 Y74.515 E.04278
G1 X147.183 Y75.56 E.04278
G1 X147.377 Y76.5 E.03008
G1 X147.377 Y80.474 E.12459
; printing object drzalo_pokrov.STL id:0 copy 0
;WIPE_START
G1 F8640
G1 X147.377 Y83.765 E-.76
;WIPE_END
G1 E-.04 F2100
G1 Z.8 F720
G1 X140.489 Y81.86 F10800
G1 Z.4 F720
G1 E.8 F2100
M204 S800
;TYPE:Perimeter
;WIDTH:0.465026
G1 F2700
G1 X140.071 Y81.868 E.01465
;WIDTH:0.449999
G1 X109.489 Y81.868 E1.03516
;WIDTH:0.468977
G1 X108.753 Y81.858 E.02607
G1 X109.047 Y81.755 E.01104
;WIDTH:0.451826
G1 X109.427 Y81.588 E.01411
;WIDTH:0.449999
G1 X109.772 Y81.357 E.01405
G1 X110.072 Y81.07 E.01404
G1 X110.318 Y80.736 E.01404
G1 X110.501 Y80.364 E.01405
G1 X110.618 Y79.966 E.01404
G1 X110.663 Y79.553 E.01405
G1 X110.636 Y79.139 E.01405
G1 X110.538 Y78.736 E.01405
G1 X110.36 Y78.339 E.01472
G1 X110.14 Y78.011 E.01336
G1 X109.854 Y77.711 E.01404
G1 X109.427 Y77.412 E.01763
;WIDTH:0.484036
G1 X108.753 Y77.149 E.02654
G1 X109.18 Y77.132 E.01568
;WIDTH:0.449999
G1 X139.644 Y77.132 E1.03116
;WIDTH:0.472026
G1 X140.435 Y77.143 E.02822
G1 X140.086 Y77.245 E.01297
;WIDTH:0.451826
G1 X139.706 Y77.412 E.01411
;WIDTH:0.449999
G1 X139.361 Y77.643 E.01404
G1 X139.061 Y77.93 E.01405
G1 X138.816 Y78.264 E.01404
G1 X138.632 Y78.636 E.01405
G1 X138.516 Y79.034 E.01404
G1 X138.47 Y79.447 E.01404
G1 X138.497 Y79.861 E.01405
G1 X138.595 Y80.264 E.01405
G1 X138.773 Y80.661 E.01472
G1 X138.993 Y80.989 E.01336
G1 X139.279 Y81.289 E.01404
G1 X139.614 Y81.534 E.01404
G1 X139.986 Y81.718 E.01405
;WIDTH:0.465026
G1 X140.431 Y81.844 E.01622
M204 S1000
;WIPE_START
G1 F8640
G1 X140.071 Y81.868 E-.08323
G1 X137.14 Y81.868 E-.67677
;WIPE_END
G1 E-.04 F2100
G1 Z.8 F720
G1 X144.368 Y81.868 F10800
G1 Z.4 F720
G1 E.8 F2100
M204 S800
;WIDTH:0.449999
G1 F1500
G1 X142.056 Y81.868 E.07826
;WIDTH:0.468977
